public/editor-src/editor/icons/fa/arrow-down-up-lock.svg

<svg xmlns="http://www.w3.org/2000/svg" viewBox="0 0 640 512"><!--! Font Awesome Free 6.4.0 by @fontawesome - https://fontawesome.com License - https://fontawesome.com/license/free (Icons: CC BY 4.0, Fonts: SIL OFL 1.1, Code: MIT License) Copyright 2023 Fonticons, Inc.--><path d="m150.6 502.6 96-96c12.5-12.5 12.5-32.8 0-45.3s-32.8-12.5-45.3 0L160 402.7V288h256v-16c0-17.2 3.9-33.5 10.8-48H352V109.3l41.4 41.4c12.5 12.5 32.8 12.5 45.3 0s12.5-32.8 0-45.3l-96-96c-6-6-14.1-9.4-22.6-9.4s-16.6 3.4-22.6 9.4l-96 96c-12.5 12.5-12.5 32.8 0 45.3s32.8 12.5 45.3 0l41.2-41.4V224H32c-17.7 0-32 14.3-32 32s14.3 32 32 32h64v114.7l-41.4-41.3c-12.5-12.5-32.8-12.5-45.3 0s-12.5 32.8 0 45.3l96 96c12.5 12.5 32.8 12.5 45.3 0zM160 192V64c0-17.7-14.3-32-32-32S96 46.3 96 64v128h64zm128 128v128c0 17.7 14.3 32 32 32s32-14.3 32-32V320h-64zm240-80c17.7 0 32 14.3 32 32v48h-64v-48c0-17.7 14.3-32 32-32zm-80 32v48c-17.7 0-32 14.3-32 32v128c0 17.7 14.3 32 32 32h160c17.7 0 32-14.3 32-32V352c0-17.7-14.3-32-32-32v-48c0-44.2-35.8-80-80-80s-80 35.8-80 80z"/></svg>

<svg xmlns="http://www.w3.org/2000/svg" viewBox="0 0 640 512"><!--! Font Awesome Free 6.4.0 by @fontawesome - https://fontawesome.com License - https://fontawesome.com/license/free (Icons: CC BY 4.0, Fonts: SIL OFL 1.1, Code: MIT License) Copyright 2023 Fonticons, Inc. --><path d="M150.6 502.6l96-96c12.5-12.5 12.5-32.8 0-45.3s-32.8-12.5-45.3 0L160 402.7V288H416V272c0-17.2 3.9-33.5 10.8-48H352V109.3l41.4 41.4c12.5 12.5 32.8 12.5 45.3 0s12.5-32.8 0-45.3l-96-96c-6-6-14.1-9.4-22.6-9.4s-16.6 3.4-22.6 9.4l-96 96c-12.5 12.5-12.5 32.8 0 45.3s32.8 12.5 45.3 0L288 109.3V224l-128 0H96l-64 0c-17.7 0-32 14.3-32 32s14.3 32 32 32H96V402.7L54.6 361.4c-12.5-12.5-32.8-12.5-45.3 0s-12.5 32.8 0 45.3l96 96c12.5 12.5 32.8 12.5 45.3 0zM160 192V64c0-17.7-14.3-32-32-32s-32 14.3-32 32V192h64zM288 320V448c0 17.7 14.3 32 32 32s32-14.3 32-32V320H288zm240-80c17.7 0 32 14.3 32 32v48H496V272c0-17.7 14.3-32 32-32zm-80 32v48c-17.7 0-32 14.3-32 32V480c0 17.7 14.3 32 32 32H608c17.7 0 32-14.3 32-32V352c0-17.7-14.3-32-32-32V272c0-44.2-35.8-80-80-80s-80 35.8-80 80z"/></svg>
